public/images/footer/telegram.svg

<svg width="32" height="32" viewBox="0 0 32 32" fill="none" xmlns="http://www.w3.org/2000/svg">
<path d="M16.0003 1.28027C24.1302 1.28027 30.7203 7.87035 30.7203 16.0003C30.7203 24.1302 24.1302 30.7203 16.0003 30.7203C7.87035 30.7203 1.28027 24.1302 1.28027 16.0003C1.28027 7.87035 7.87035 1.28027 16.0003 1.28027ZM21.078 22.0003C21.3488 21.1696 22.6172 12.8905 22.774 11.2592C22.8214 10.7651 22.6652 10.4368 22.3593 10.2902C21.9894 10.1123 21.4416 10.2012 20.806 10.4304C19.9344 10.7446 8.79067 15.4761 8.14683 15.75C7.53627 16.0092 6.95899 16.2921 6.95899 16.7017C6.95899 16.9897 7.12987 17.1516 7.60091 17.32C8.09115 17.4947 9.32571 17.8691 10.0547 18.07C10.7568 18.264 11.5561 18.0956 12.0041 17.8172C12.479 17.5222 17.9593 13.855 18.3529 13.5337C18.7459 13.2124 19.0595 13.624 18.7382 13.9459C18.4169 14.2672 14.655 17.9184 14.159 18.424C13.5568 19.0377 13.9843 19.6739 14.3881 19.9286C14.8496 20.2192 18.168 22.4451 18.6678 22.8022C19.1676 23.1593 19.6745 23.3212 20.1385 23.3212C20.6025 23.3212 20.847 22.71 21.078 22.0003Z" fill="black"/>
</svg>

<svg width="32" height="32" fill="none" xmlns="http://www.w3.org/2000/svg"><path d="M16 1.28c8.13 0 14.72 6.59 14.72 14.72S24.13 30.72 16 30.72 1.28 24.13 1.28 16 7.87 1.28 16 1.28zM21.078 22c.27-.83 1.54-9.11 1.696-10.74.047-.495-.109-.823-.415-.97-.37-.178-.917-.089-1.553.14-.872.315-12.015 5.046-12.66 5.32-.61.26-1.187.542-1.187.952 0 .288.17.45.642.618.49.175 1.725.55 2.454.75.702.194 1.501.026 1.95-.253.474-.295 5.954-3.962 6.348-4.283.393-.322.706.09.385.412-.321.321-4.083 3.972-4.579 4.478-.602.614-.175 1.25.23 1.505.46.29 3.779 2.516 4.279 2.873.5.357 1.006.52 1.47.52.464 0 .709-.612.94-1.322z" fill="#000"/></svg>
